images/xmpp.svg

<?xml version="1.0" encoding="UTF-8" standalone="no"?>
<svg
   xmlns:dc="http://purl.org/dc/elements/1.1/"
   xmlns:cc="http://creativecommons.org/ns#"
   xmlns:rdf="http://www.w3.org/1999/02/22-rdf-syntax-ns#"
   xmlns:svg="http://www.w3.org/2000/svg"
   xmlns="http://www.w3.org/2000/svg"
   xmlns:sodipodi="http://sodipodi.sourceforge.net/DTD/sodipodi-0.dtd"
   xmlns:inkscape="http://www.inkscape.org/namespaces/inkscape"
   width="24"
   height="24"
   viewBox="0 0 24 24"
   version="1.1"
   id="svg4"
   sodipodi:docname="github (cópia 1).svg"
   inkscape:version="0.92.4 (5da689c313, 2019-01-14)">
  <metadata
     id="metadata10">
    <rdf:RDF>
      <cc:Work
         rdf:about="">
        <dc:format>image/svg+xml</dc:format>
        <dc:type
           rdf:resource="http://purl.org/dc/dcmitype/StillImage" />
      </cc:Work>
    </rdf:RDF>
  </metadata>
  <defs
     id="defs8" />
  <sodipodi:namedview
     pagecolor="#ffffff"
     bordercolor="#666666"
     borderopacity="1"
     objecttolerance="10"
     gridtolerance="10"
     guidetolerance="10"
     inkscape:pageopacity="0"
     inkscape:pageshadow="2"
     inkscape:window-width="1440"
     inkscape:window-height="876"
     id="namedview6"
     showgrid="false"
     inkscape:zoom="9.8333333"
     inkscape:cx="-0.86440678"
     inkscape:cy="12"
     inkscape:window-x="1280"
     inkscape:window-y="0"
     inkscape:window-maximized="1"
     inkscape:current-layer="svg4" />
  <path
     d="M 0,0 V 24 H 24 V 0 Z"
     id="path2"
     inkscape:connector-curvature="0"
     sodipodi:nodetypes="ccccc" />
  <path
     inkscape:connector-curvature="0"
     d="M 3.7111802,20.589469 4.4323817,19.831623 4.2401912,19.612846 C 4.134467,19.492775 3.8422439,19.169677 3.5907668,18.895387 l -0.4572184,-0.498682 0.5618823,-0.02495 0.5618823,-0.02495 0.4721102,0.509909 0.4720946,0.509909 0.4620992,-0.511781 0.4620991,-0.511936 0.5624281,0.02651 0.562428,0.02651 -0.624771,0.678475 c -0.3436194,0.373154 -0.6247711,0.709039 -0.6247711,0.746464 0,0.03742 0.3264977,0.39592 0.7255366,0.79683 l 0.7255365,0.728842 -0.6216367,1.56e-4 H 6.2088297 L 5.7030375,20.788755 5.1972296,20.230818 4.6753292,20.788599 4.1534287,21.346536 H 3.5717115 2.9899786 L 3.7111802,20.58869 Z m 4.118396,-0.738198 V 18.35507 h 0.6995733 0.6995733 l 0.516006,0.968983 0.5159902,0.969139 0.509083,-0.96758 0.509082,-0.967579 0.727268,-0.0016 0.727252,-0.0014 v 1.496201 1.496045 h -0.457125 -0.457141 l -2.49e-4,-1.101372 -2.5e-4,-1.101217 -0.602347,1.080477 -0.602348,1.080477 -0.345584,0.02495 -0.3455841,0.02499 -0.6102378,-1.105586 -0.6102379,-1.105738 -0.023234,1.101216 -0.023234,1.101372 H 8.2426648 7.8294982 v -1.496045 z m 5.5687678,0 V 18.35507 h 1.458651 c 1.621495,0 1.848537,0.05458 2.030498,0.494627 0.06237,0.151258 0.09013,0.456424 0.06846,0.755664 -0.02947,0.407303 -0.0789,0.54515 -0.261005,0.727439 -0.217639,0.217842 -0.258338,0.225794 -1.303496,0.252303 l -1.078855,0.02807 v 0.367384 0.367384 h -0.45714 -0.457125 v -1.496045 z m 2.559961,-0.0998 c 0.139874,-0.140342 0.124124,-0.445819 -0.03087,-0.600819 -0.09918,-0.0998 -0.308893,-0.130986 -0.872709,-0.130986 h -0.742112 v 0.415568 0.415568 h 0.772972 c 0.490386,0 0.809445,-0.03587 0.872724,-0.0998 z m 1.512699,0.0998 V 18.35507 h 1.536338 1.536323 l 0.271437,0.24248 c 0.257621,0.230316 0.271437,0.272263 0.271437,0.82521 0,0.461257 -0.03618,0.630915 -0.173728,0.815075 -0.228398,0.305945 -0.392131,0.343214 -1.550918,0.353038 l -0.976609,0.01559 v 0.373934 0.374089 h -0.45714 -0.45714 v -1.496198 z m 2.528228,-0.0499 c 0.200034,-0.07641 0.174102,-0.58585 -0.03555,-0.698123 -0.09263,-0.0499 -0.472157,-0.07797 -0.851922,-0.06549 l -0.684916,0.02339 -0.02542,0.394829 -0.02526,0.394828 h 0.745793 c 0.410188,0 0.804954,-0.02339 0.877261,-0.0499 z m -4.897029,-4.241913 c -0.733863,-0.155935 -1.834829,-0.529089 -2.645211,-0.8985 l -0.626361,-0.285362 -0.81612,0.333858 c -0.854807,0.34992 -2.3558883,0.77079 -3.1014937,0.869653 C 7.2896185,15.661757 7.3916314,15.469952 8.0977696,15.231839 8.7437791,15.013997 9.8190945,14.467287 10.36476,14.07932 L 10.750887,13.804718 9.9343775,13.2683 C 8.8358122,12.546474 8.200188,12.028301 7.1773761,11.020646 4.679134,8.5596721 3.2688068,5.9153185 2.9655435,3.1234499 L 2.9134611,2.6444161 3.3559436,2.8199994 C 5.049777,3.4923932 5.8818331,3.7917893 7.1230638,4.1749227 l 1.412978,0.4363074 0.055825,0.908636 c 0.062998,1.0243401 0.2028253,1.6906524 0.5779748,2.7536644 0.4936761,1.3988971 1.4824634,3.1037395 2.3527074,4.0561935 l 0.379656,0.415568 0.373809,-0.413073 c 1.748317,-1.931885 3.033942,-4.9773043 3.033942,-7.1867539 V 4.5041025 l 1.35062,-0.3949846 C 17.403421,3.8918998 18.619,3.4788268 19.361846,3.1912818 l 1.350635,-0.5226957 v 0.3293357 c 0,0.4757591 -0.299724,1.875124 -0.55209,2.5773014 -1.025073,2.8528394 -3.378451,5.6938278 -6.326442,7.6374078 l -0.852639,0.562147 0.270829,0.203184 c 0.818552,0.614386 1.757719,1.108545 2.636135,1.387046 0.95236,0.302047 0.385551,0.442077 -0.786117,0.194451 z"
     id="path2-3"
     style="fill:#ffffff;stroke-width:1.55935466" />
</svg>

<?xml version="1.0" encoding="UTF-8" standalone="no"?>
<svg
   width="24"
   height="24"
   viewBox="0 0 24 24"
   version="1.1"
   id="svg4"
   sodipodi:docname="xmpp.svg"
   inkscape:version="1.1.2 (0a00cf5339, 2022-02-04)"
   xmlns:inkscape="http://www.inkscape.org/namespaces/inkscape"
   xmlns:sodipodi="http://sodipodi.sourceforge.net/DTD/sodipodi-0.dtd"
   xmlns="http://www.w3.org/2000/svg"
   xmlns:svg="http://www.w3.org/2000/svg"
   xmlns:rdf="http://www.w3.org/1999/02/22-rdf-syntax-ns#"
   xmlns:cc="http://creativecommons.org/ns#"
   xmlns:dc="http://purl.org/dc/elements/1.1/">
  <metadata
     id="metadata10">
    <rdf:RDF>
      <cc:Work
         rdf:about="">
        <dc:format>image/svg+xml</dc:format>
        <dc:type
           rdf:resource="http://purl.org/dc/dcmitype/StillImage" />
      </cc:Work>
    </rdf:RDF>
  </metadata>
  <defs
     id="defs8" />
  <sodipodi:namedview
     pagecolor="#ffffff"
     bordercolor="#666666"
     borderopacity="1"
     objecttolerance="10"
     gridtolerance="10"
     guidetolerance="10"
     inkscape:pageopacity="0"
     inkscape:pageshadow="2"
     inkscape:window-width="1920"
     inkscape:window-height="990"
     id="namedview6"
     showgrid="false"
     inkscape:zoom="19.666667"
     inkscape:cx="1.9830509"
     inkscape:cy="10.067797"
     inkscape:window-x="0"
     inkscape:window-y="0"
     inkscape:window-maximized="1"
     inkscape:current-layer="svg4"
     inkscape:pagecheckerboard="0" />
  <path
     id="path2"
     d="M 0 0 L 0 24 L 24 24 L 24 0 L 0 0 z M 2.9140625 2.6445312 L 3.3554688 2.8203125 C 5.0493021 3.4927063 5.8818162 3.7926479 7.1230469 4.1757812 L 8.5351562 4.6113281 L 8.5917969 5.5195312 C 8.6547949 6.5438713 8.7947724 7.2104255 9.1699219 8.2734375 C 9.663598 9.6723346 10.653194 11.377624 11.523438 12.330078 L 11.902344 12.746094 L 12.275391 12.332031 C 14.023708 10.400146 15.310547 7.3539809 15.310547 5.1445312 L 15.310547 4.5039062 L 16.660156 4.109375 C 17.403001 3.8921569 18.618482 3.4789512 19.361328 3.1914062 L 20.712891 2.6679688 L 20.712891 2.9980469 C 20.712891 3.473806 20.412522 4.8739945 20.160156 5.5761719 C 19.135083 8.4290113 16.781975 11.269311 13.833984 13.212891 L 12.980469 13.775391 L 13.251953 13.978516 C 14.070505 14.592902 15.010256 15.086733 15.888672 15.365234 C 16.841032 15.667281 16.273231 15.80622 15.101562 15.558594 C 14.3677 15.402659 13.267413 15.029567 12.457031 14.660156 L 11.830078 14.375 L 11.013672 14.708984 C 10.158865 15.058904 8.6577148 15.481215 7.9121094 15.580078 C 7.2887106 15.662728 7.3915181 15.470535 8.0976562 15.232422 C 8.7436657 15.01458 9.8195689 14.468045 10.365234 14.080078 L 10.75 13.804688 L 9.9335938 13.267578 C 8.8350284 12.545752 8.2005463 12.029139 7.1777344 11.021484 C 4.6794923 8.5605105 3.268107 5.9149155 2.9648438 3.1230469 L 2.9140625 2.6445312 z M 6.125 18.34375 L 6.6875 18.369141 L 7.25 18.396484 L 6.625 19.074219 C 6.2813806 19.447373 6.0019531 19.782888 6.0019531 19.820312 C 6.0019531 19.857733 6.3275236 20.216278 6.7265625 20.617188 L 7.4511719 21.345703 L 6.8300781 21.347656 L 6.2089844 21.347656 L 5.703125 20.789062 L 5.1972656 20.230469 L 4.6757812 20.789062 L 4.1542969 21.345703 L 3.5722656 21.345703 L 2.9902344 21.345703 L 3.7109375 20.589844 L 4.4316406 19.832031 L 4.2402344 19.613281 C 4.1345102 19.49321 3.8413209 19.168821 3.5898438 18.894531 L 3.1328125 18.396484 L 3.6953125 18.371094 L 4.2578125 18.347656 L 4.7285156 18.857422 L 5.2011719 19.367188 L 5.6640625 18.855469 L 6.125 18.34375 z M 7.8300781 18.355469 L 8.5292969 18.355469 L 9.2285156 18.355469 L 9.7441406 19.324219 L 10.259766 20.292969 L 10.769531 19.326172 L 11.279297 18.357422 L 12.005859 18.355469 L 12.734375 18.355469 L 12.734375 19.851562 L 12.734375 21.347656 L 12.275391 21.347656 L 11.818359 21.347656 L 11.818359 20.246094 L 11.818359 19.144531 L 11.216797 20.224609 L 10.613281 21.304688 L 10.267578 21.330078 L 9.921875 21.355469 L 9.3125 20.25 L 8.703125 19.144531 L 8.6796875 20.246094 L 8.65625 21.347656 L 8.2421875 21.347656 L 7.8300781 21.347656 L 7.8300781 19.851562 L 7.8300781 18.355469 z M 13.398438 18.355469 L 14.857422 18.355469 C 16.478917 18.355469 16.704758 18.409562 16.886719 18.849609 C 16.949089 19.000867 16.976748 19.306229 16.955078 19.605469 C 16.925608 20.012772 16.877417 20.149742 16.695312 20.332031 C 16.477674 20.549873 16.435783 20.559428 15.390625 20.585938 L 14.3125 20.613281 L 14.3125 20.980469 L 14.3125 21.347656 L 13.855469 21.347656 L 13.398438 21.347656 L 13.398438 19.851562 L 13.398438 18.355469 z M 17.470703 18.355469 L 19.007812 18.355469 L 20.542969 18.355469 L 20.814453 18.597656 C 21.072074 18.827972 21.085938 18.868928 21.085938 19.421875 C 21.085938 19.883132 21.049657 20.054121 20.912109 20.238281 C 20.683711 20.544226 20.520115 20.581973 19.361328 20.591797 L 18.384766 20.607422 L 18.384766 20.980469 L 18.384766 21.353516 L 17.927734 21.353516 L 17.470703 21.353516 L 17.470703 19.857422 L 17.470703 19.851562 L 17.470703 18.355469 z M 14.3125 19.019531 L 14.3125 19.435547 L 14.3125 19.851562 L 15.085938 19.851562 C 15.576323 19.851562 15.895705 19.815883 15.958984 19.751953 C 16.098858 19.611611 16.082728 19.305391 15.927734 19.150391 C 15.828554 19.050591 15.618504 19.019531 15.054688 19.019531 L 14.3125 19.019531 z M 19.392578 19.035156 C 19.302146 19.0335 19.206269 19.033989 19.111328 19.037109 L 18.427734 19.060547 L 18.402344 19.455078 L 18.376953 19.851562 L 19.121094 19.851562 C 19.531282 19.851562 19.927693 19.827291 20 19.800781 C 20.200034 19.724371 20.172543 19.215789 19.962891 19.103516 C 19.893418 19.066091 19.663875 19.040125 19.392578 19.035156 z " />
</svg>
